src/pages/elements/pictograms/images/11_Gradients_9_dont.svg

<?xml version="1.0" encoding="UTF-8"?>
<svg width="288px" height="288px" viewBox="0 0 288 288" version="1.1" xmlns="http://www.w3.org/2000/svg" xmlns:xlink="http://www.w3.org/1999/xlink">
    <!-- Generator: Sketch 52.4 (67378) - http://www.bohemiancoding.com/sketch -->
    <title>Artboard</title>
    <desc>Created with Sketch.</desc>
    <defs>
        <linearGradient x1="-1.97308238%" y1="101.799282%" x2="102.220239%" y2="-1.75155915%" id="linearGradient-1">
            <stop stop-color="#EE538B" offset="0%"></stop>
            <stop stop-color="#408BFC" offset="100%"></stop>
        </linearGradient>
        <filter x="-5.1%" y="-5.1%" width="110.2%" height="110.2%" filterUnits="objectBoundingBox" id="filter-2">
            <feGaussianBlur stdDeviation="3" in="SourceGraphic"></feGaussianBlur>
        </filter>
    </defs>
    <g id="Artboard" stroke="none" stroke-width="1" fill="none" fill-rule="evenodd">
        <rect id="Rectangle-3-Copy-45" fill="#FFFFFF" x="0" y="0" width="288" height="288"></rect>
        <g id="Group-4-Copy-14" transform="translate(52.000000, 52.000000)">
            <polygon id="Fill-1" fill="#FFFFFF" points="0 184 184 184 184 0 0 0"></polygon>
            <path d="M163.38425,90.25 L176.49425,90.25 L176.49425,77.14575 L163.38425,77.14575 L163.38425,90.25 Z M178.57,94.39 L161.32,94.39 C160.17575,94.39 159.25,93.46425 159.25,92.32 L159.25,75.07 C159.25,73.92575 160.17575,73 161.32,73 L178.57,73 C179.7085,73 180.63425,73.92575 180.63425,75.07 L180.63425,92.32 C180.63425,93.46425 179.7085,94.39 178.57,94.39 Z M163.38425,21.25 L176.49425,21.25 L176.49425,8.14575 L163.38425,8.14575 L163.38425,21.25 Z M178.57,25.39 L161.32,25.39 C160.17575,25.39 159.25,24.46425 159.25,23.32 L159.25,6.07 C159.25,4.92575 160.17575,4 161.32,4 L178.57,4 C179.7085,4 180.63425,4.92575 180.63425,6.07 L180.63425,23.32 C180.63425,24.46425 179.7085,25.39 178.57,25.39 Z M152.03375,176.5 L143.25925,176.5 L143.25925,161.32 C143.25925,160.17575 142.3335,159.25 141.195,159.25 L123.945,159.25 C122.80075,159.25 121.875,160.17575 121.875,161.32 L121.875,176.5 L74.25925,176.5 L74.25925,161.32 C74.25925,160.17575 73.3335,159.25 72.195,159.25 L54.945,159.25 C53.80075,159.25 52.875,160.17575 52.875,161.32 L52.875,176.5 L45.87725,176.5 C25.068,176.5 8.13425,159.572 8.13425,138.76275 C8.13425,117.83275 25.41875,100.14 45.87725,100.14 C47.9875,100.14 50.15525,100.32975 52.3115,100.692 C53.1625,100.83575 54.03075,100.4275 54.462,99.6685 C65.30075,80.37725 79.44,71.39 98.9555,71.39 C129.465,71.39 149.96375,100.05375 149.96375,126.82 C149.96375,127.96425 150.8895,128.89 152.03375,128.89 C166.21325,128.89 176.50575,138.62475 176.50575,152.03375 C176.50575,165.75325 165.75325,176.5 152.03375,176.5 Z M126.00925,176.49425 L139.11925,176.49425 L139.11925,163.39 L126.00925,163.39 L126.00925,176.49425 Z M57.00925,176.49425 L70.11925,176.49425 L70.11925,163.39 L57.00925,163.39 L57.00925,176.49425 Z M154.06925,124.8075 C153.063,96.63825 131.17275,67.25 98.9555,67.25 C78.21525,67.25 63.12725,76.519 51.564,96.391 C26.5515,92.987 4,113.6755 4,138.76275 C4,161.85475 22.78525,180.64 45.87725,180.64 L54.945,180.64 L72.195,180.64 L123.945,180.64 L141.195,180.64 L152.03375,180.64 C168.07625,180.64 180.64,168.07625 180.64,152.03375 C180.64,137.12975 169.35275,125.739 154.06925,124.8075 Z M88.63425,136.25 L101.74425,136.25 L101.74425,123.14575 L88.63425,123.14575 L88.63425,136.25 Z M103.82,140.39 L86.57,140.39 C85.42575,140.39 84.5,139.46425 84.5,138.32 L84.5,121.07 C84.5,119.92575 85.42575,119 86.57,119 L103.82,119 C104.9585,119 105.88425,119.92575 105.88425,121.07 L105.88425,138.32 C105.88425,139.46425 104.9585,140.39 103.82,140.39 Z M57.00925,136.25 L70.11925,136.25 L70.11925,123.14575 L57.00925,123.14575 L57.00925,136.25 Z M72.195,140.39 L54.945,140.39 C53.80075,140.39 52.875,139.46425 52.875,138.32 L52.875,121.07 C52.875,119.92575 53.80075,119 54.945,119 L72.195,119 C73.3335,119 74.25925,119.92575 74.25925,121.07 L74.25925,138.32 C74.25925,139.46425 73.3335,140.39 72.195,140.39 Z M54.13425,21.25 L67.24425,21.25 L67.24425,8.14575 L54.13425,8.14575 L54.13425,21.25 Z M69.32,25.39 L52.07,25.39 C50.92575,25.39 50,24.46425 50,23.32 L50,6.07 C50,4.92575 50.92575,4 52.07,4 L69.32,4 C70.4585,4 71.38425,4.92575 71.38425,6.07 L71.38425,23.32 C71.38425,24.46425 70.4585,25.39 69.32,25.39 Z M123.13425,55.75 L136.24425,55.75 L136.24425,42.64575 L123.13425,42.64575 L123.13425,55.75 Z M138.32,59.89 L121.07,59.89 C119.92575,59.89 119,58.96425 119,57.82 L119,40.57 C119,39.42575 119.92575,38.5 121.07,38.5 L138.32,38.5 C139.4585,38.5 140.38425,39.42575 140.38425,40.57 L140.38425,57.82 C140.38425,58.96425 139.4585,59.89 138.32,59.89 Z M8.13425,55.75 L21.24425,55.75 L21.24425,42.64575 L8.13425,42.64575 L8.13425,55.75 Z M23.32,59.89 L6.07,59.89 C4.92575,59.89 4,58.96425 4,57.82 L4,40.57 C4,39.42575 4.92575,38.5 6.07,38.5 L23.32,38.5 C24.4585,38.5 25.38425,39.42575 25.38425,40.57 L25.38425,57.82 C25.38425,58.96425 24.4585,59.89 23.32,59.89 Z" id="Fill-2-Copy" fill="url(#linearGradient-1)" filter="url(#filter-2)"></path>
            <path d="M163.38425,90.25 L176.49425,90.25 L176.49425,77.14575 L163.38425,77.14575 L163.38425,90.25 Z M178.57,94.39 L161.32,94.39 C160.17575,94.39 159.25,93.46425 159.25,92.32 L159.25,75.07 C159.25,73.92575 160.17575,73 161.32,73 L178.57,73 C179.7085,73 180.63425,73.92575 180.63425,75.07 L180.63425,92.32 C180.63425,93.46425 179.7085,94.39 178.57,94.39 Z M163.38425,21.25 L176.49425,21.25 L176.49425,8.14575 L163.38425,8.14575 L163.38425,21.25 Z M178.57,25.39 L161.32,25.39 C160.17575,25.39 159.25,24.46425 159.25,23.32 L159.25,6.07 C159.25,4.92575 160.17575,4 161.32,4 L178.57,4 C179.7085,4 180.63425,4.92575 180.63425,6.07 L180.63425,23.32 C180.63425,24.46425 179.7085,25.39 178.57,25.39 Z M152.03375,176.5 L143.25925,176.5 L143.25925,161.32 C143.25925,160.17575 142.3335,159.25 141.195,159.25 L123.945,159.25 C122.80075,159.25 121.875,160.17575 121.875,161.32 L121.875,176.5 L74.25925,176.5 L74.25925,161.32 C74.25925,160.17575 73.3335,159.25 72.195,159.25 L54.945,159.25 C53.80075,159.25 52.875,160.17575 52.875,161.32 L52.875,176.5 L45.87725,176.5 C25.068,176.5 8.13425,159.572 8.13425,138.76275 C8.13425,117.83275 25.41875,100.14 45.87725,100.14 C47.9875,100.14 50.15525,100.32975 52.3115,100.692 C53.1625,100.83575 54.03075,100.4275 54.462,99.6685 C65.30075,80.37725 79.44,71.39 98.9555,71.39 C129.465,71.39 149.96375,100.05375 149.96375,126.82 C149.96375,127.96425 150.8895,128.89 152.03375,128.89 C166.21325,128.89 176.50575,138.62475 176.50575,152.03375 C176.50575,165.75325 165.75325,176.5 152.03375,176.5 Z M126.00925,176.49425 L139.11925,176.49425 L139.11925,163.39 L126.00925,163.39 L126.00925,176.49425 Z M57.00925,176.49425 L70.11925,176.49425 L70.11925,163.39 L57.00925,163.39 L57.00925,176.49425 Z M154.06925,124.8075 C153.063,96.63825 131.17275,67.25 98.9555,67.25 C78.21525,67.25 63.12725,76.519 51.564,96.391 C26.5515,92.987 4,113.6755 4,138.76275 C4,161.85475 22.78525,180.64 45.87725,180.64 L54.945,180.64 L72.195,180.64 L123.945,180.64 L141.195,180.64 L152.03375,180.64 C168.07625,180.64 180.64,168.07625 180.64,152.03375 C180.64,137.12975 169.35275,125.739 154.06925,124.8075 Z M88.63425,136.25 L101.74425,136.25 L101.74425,123.14575 L88.63425,123.14575 L88.63425,136.25 Z M103.82,140.39 L86.57,140.39 C85.42575,140.39 84.5,139.46425 84.5,138.32 L84.5,121.07 C84.5,119.92575 85.42575,119 86.57,119 L103.82,119 C104.9585,119 105.88425,119.92575 105.88425,121.07 L105.88425,138.32 C105.88425,139.46425 104.9585,140.39 103.82,140.39 Z M57.00925,136.25 L70.11925,136.25 L70.11925,123.14575 L57.00925,123.14575 L57.00925,136.25 Z M72.195,140.39 L54.945,140.39 C53.80075,140.39 52.875,139.46425 52.875,138.32 L52.875,121.07 C52.875,119.92575 53.80075,119 54.945,119 L72.195,119 C73.3335,119 74.25925,119.92575 74.25925,121.07 L74.25925,138.32 C74.25925,139.46425 73.3335,140.39 72.195,140.39 Z M54.13425,21.25 L67.24425,21.25 L67.24425,8.14575 L54.13425,8.14575 L54.13425,21.25 Z M69.32,25.39 L52.07,25.39 C50.92575,25.39 50,24.46425 50,23.32 L50,6.07 C50,4.92575 50.92575,4 52.07,4 L69.32,4 C70.4585,4 71.38425,4.92575 71.38425,6.07 L71.38425,23.32 C71.38425,24.46425 70.4585,25.39 69.32,25.39 Z M123.13425,55.75 L136.24425,55.75 L136.24425,42.64575 L123.13425,42.64575 L123.13425,55.75 Z M138.32,59.89 L121.07,59.89 C119.92575,59.89 119,58.96425 119,57.82 L119,40.57 C119,39.42575 119.92575,38.5 121.07,38.5 L138.32,38.5 C139.4585,38.5 140.38425,39.42575 140.38425,40.57 L140.38425,57.82 C140.38425,58.96425 139.4585,59.89 138.32,59.89 Z M8.13425,55.75 L21.24425,55.75 L21.24425,42.64575 L8.13425,42.64575 L8.13425,55.75 Z M23.32,59.89 L6.07,59.89 C4.92575,59.89 4,58.96425 4,57.82 L4,40.57 C4,39.42575 4.92575,38.5 6.07,38.5 L23.32,38.5 C24.4585,38.5 25.38425,39.42575 25.38425,40.57 L25.38425,57.82 C25.38425,58.96425 24.4585,59.89 23.32,59.89 Z" id="Fill-2" fill="url(#linearGradient-1)"></path>
        </g>
    </g>
</svg>

<svg xmlns="http://www.w3.org/2000/svg" viewBox="0 0 288 288"><defs><linearGradient x1="-1.973%" y1="101.799%" x2="102.22%" y2="-1.752%" id="a"><stop stop-color="#EE538B" offset="0%"/><stop stop-color="#408BFC" offset="100%"/></linearGradient><filter x="-5.1%" y="-5.1%" width="110.2%" height="110.2%" filterUnits="objectBoundingBox" id="b"><feGaussianBlur stdDeviation="3" in="SourceGraphic"/></filter></defs><g fill="none" fill-rule="evenodd"><path fill="#FFF" d="M0 0h288v288H0z"/><path fill="#FFF" d="M52 236h184V52H52z"/><path d="M163.384 90.25h13.11V77.146h-13.11V90.25zm15.186 4.14h-17.25a2.069 2.069 0 01-2.07-2.07V75.07c0-1.144.926-2.07 2.07-2.07h17.25c1.138 0 2.064.926 2.064 2.07v17.25c0 1.144-.925 2.07-2.064 2.07zm-15.186-73.14h13.11V8.146h-13.11V21.25zm15.186 4.14h-17.25a2.069 2.069 0 01-2.07-2.07V6.07c0-1.144.926-2.07 2.07-2.07h17.25c1.138 0 2.064.926 2.064 2.07v17.25c0 1.144-.925 2.07-2.064 2.07zM152.034 176.5h-8.775v-15.18c0-1.144-.925-2.07-2.064-2.07h-17.25c-1.144 0-2.07.926-2.07 2.07v15.18H74.259v-15.18c0-1.144-.925-2.07-2.064-2.07h-17.25c-1.144 0-2.07.926-2.07 2.07v15.18h-6.998c-20.809 0-37.743-16.928-37.743-37.737 0-20.93 17.285-38.623 37.743-38.623 2.11 0 4.278.19 6.434.552a2.086 2.086 0 002.151-1.023C65.301 80.376 79.44 71.39 98.955 71.39c30.51 0 51.009 28.664 51.009 55.43 0 1.144.925 2.07 2.07 2.07 14.18 0 24.472 9.735 24.472 23.144 0 13.72-10.753 24.466-24.472 24.466zm-26.025-.006h13.11V163.39h-13.11v13.104zm-69 0h13.11V163.39H57.01v13.104zm97.06-51.686c-1.006-28.17-22.896-57.558-55.113-57.558-20.74 0-35.829 9.269-47.392 29.141C26.552 92.987 4 113.675 4 138.763c0 23.092 18.785 41.877 41.877 41.877h106.157c16.042 0 28.606-12.564 28.606-28.606 0-14.904-11.287-26.295-26.57-27.226zM88.634 136.25h13.11v-13.104h-13.11v13.104zm15.186 4.14H86.57a2.069 2.069 0 01-2.07-2.07v-17.25c0-1.144.926-2.07 2.07-2.07h17.25c1.139 0 2.064.926 2.064 2.07v17.25c0 1.144-.925 2.07-2.064 2.07zm-46.81-4.14h13.11v-13.104H57.01v13.104zm15.185 4.14h-17.25a2.069 2.069 0 01-2.07-2.07v-17.25c0-1.144.926-2.07 2.07-2.07h17.25c1.139 0 2.064.926 2.064 2.07v17.25c0 1.144-.925 2.07-2.064 2.07zM54.135 21.25h13.11V8.146h-13.11V21.25zm15.185 4.14H52.07A2.069 2.069 0 0150 23.32V6.07C50 4.926 50.926 4 52.07 4h17.25c1.139 0 2.064.926 2.064 2.07v17.25c0 1.144-.925 2.07-2.064 2.07zm53.814 30.36h13.11V42.646h-13.11V55.75zm15.186 4.14h-17.25a2.069 2.069 0 01-2.07-2.07V40.57c0-1.144.926-2.07 2.07-2.07h17.25c1.138 0 2.064.926 2.064 2.07v17.25c0 1.144-.925 2.07-2.064 2.07zM8.134 55.75h13.11V42.646H8.134V55.75zm15.186 4.14H6.07A2.069 2.069 0 014 57.82V40.57c0-1.144.926-2.07 2.07-2.07h17.25c1.139 0 2.064.926 2.064 2.07v17.25c0 1.144-.925 2.07-2.064 2.07z" fill="url(#a)" filter="url(#b)" transform="translate(52 52)"/><path d="M163.384 90.25h13.11V77.146h-13.11V90.25zm15.186 4.14h-17.25a2.069 2.069 0 01-2.07-2.07V75.07c0-1.144.926-2.07 2.07-2.07h17.25c1.138 0 2.064.926 2.064 2.07v17.25c0 1.144-.925 2.07-2.064 2.07zm-15.186-73.14h13.11V8.146h-13.11V21.25zm15.186 4.14h-17.25a2.069 2.069 0 01-2.07-2.07V6.07c0-1.144.926-2.07 2.07-2.07h17.25c1.138 0 2.064.926 2.064 2.07v17.25c0 1.144-.925 2.07-2.064 2.07zM152.034 176.5h-8.775v-15.18c0-1.144-.925-2.07-2.064-2.07h-17.25c-1.144 0-2.07.926-2.07 2.07v15.18H74.259v-15.18c0-1.144-.925-2.07-2.064-2.07h-17.25c-1.144 0-2.07.926-2.07 2.07v15.18h-6.998c-20.809 0-37.743-16.928-37.743-37.737 0-20.93 17.285-38.623 37.743-38.623 2.11 0 4.278.19 6.434.552a2.086 2.086 0 002.151-1.023C65.301 80.376 79.44 71.39 98.955 71.39c30.51 0 51.009 28.664 51.009 55.43 0 1.144.925 2.07 2.07 2.07 14.18 0 24.472 9.735 24.472 23.144 0 13.72-10.753 24.466-24.472 24.466zm-26.025-.006h13.11V163.39h-13.11v13.104zm-69 0h13.11V163.39H57.01v13.104zm97.06-51.686c-1.006-28.17-22.896-57.558-55.113-57.558-20.74 0-35.829 9.269-47.392 29.141C26.552 92.987 4 113.675 4 138.763c0 23.092 18.785 41.877 41.877 41.877h106.157c16.042 0 28.606-12.564 28.606-28.606 0-14.904-11.287-26.295-26.57-27.226zM88.634 136.25h13.11v-13.104h-13.11v13.104zm15.186 4.14H86.57a2.069 2.069 0 01-2.07-2.07v-17.25c0-1.144.926-2.07 2.07-2.07h17.25c1.139 0 2.064.926 2.064 2.07v17.25c0 1.144-.925 2.07-2.064 2.07zm-46.81-4.14h13.11v-13.104H57.01v13.104zm15.185 4.14h-17.25a2.069 2.069 0 01-2.07-2.07v-17.25c0-1.144.926-2.07 2.07-2.07h17.25c1.139 0 2.064.926 2.064 2.07v17.25c0 1.144-.925 2.07-2.064 2.07zM54.135 21.25h13.11V8.146h-13.11V21.25zm15.185 4.14H52.07A2.069 2.069 0 0150 23.32V6.07C50 4.926 50.926 4 52.07 4h17.25c1.139 0 2.064.926 2.064 2.07v17.25c0 1.144-.925 2.07-2.064 2.07zm53.814 30.36h13.11V42.646h-13.11V55.75zm15.186 4.14h-17.25a2.069 2.069 0 01-2.07-2.07V40.57c0-1.144.926-2.07 2.07-2.07h17.25c1.138 0 2.064.926 2.064 2.07v17.25c0 1.144-.925 2.07-2.064 2.07zM8.134 55.75h13.11V42.646H8.134V55.75zm15.186 4.14H6.07A2.069 2.069 0 014 57.82V40.57c0-1.144.926-2.07 2.07-2.07h17.25c1.139 0 2.064.926 2.064 2.07v17.25c0 1.144-.925 2.07-2.064 2.07z" fill="url(#a)" transform="translate(52 52)"/></g></svg>
